X:269
T: Ich bekomm einmal einen traurigen Brief (3-71), S. 201
N: P1044
O: Lothringen
S: PINCK, Louis: Verklingende Weisen, Bd3, Metz 1933]
R: Untreue]
M: 4/4
L: 1/16
K: G
D2D2 | B4A4G4B2A2 | G2F2E2F2G8 |
G4A2B2c4c2c2 | B2d2B2G2A8 |
A4c2d2d4A2c2 | B4A2G2F4G2B2 | A8
A4B2d2 | d4A2c2AB3A4 | G8z4

@@@ Tune index: 7819
